X: 4083
T: Blizzard
R: waltz
M: 3/4
K: Gmajor
cd|:"Am"e2c2B2|A2B2d2|"G"g3dB2|"Am"c4Bc|"G"d2B2G2|"Am"A2c2B2|"Am"A4"G"G2|"Am"A4GA|
"Em"B3GE2|G2F2G2|"Am"A2c2"G"B2|"Am"A4Bc|"G"d2B2G2|"D7"A2c2F2|"G"G4A2|1 "G"G4cd:|2 "G"G4FG||
K: Cmaj
"Dm"A2F2E2|"Dm"D2E2G2|"C"c3GE2|"Dm"F4EF|"C"G2E2C2|"Dm"D2F2"C"E2|"Dm"D4"C"C2|"Dm"D4CD|"Am"E3CA,2|
"Am"C2B,2C2|"dm"D2F2"C"E2|"Dm"D4EF|"C"G2E2C2|"G7"D2F2B,2|"C"C4D2|1 C4FG:|2 "C"C6||

